X: 595
P: Longways for as many as will
M: C|
L: 1/8
K: Gm
[| ga |\
b2(ag) f2(ed) | c2B2 A2g2 | (gf) (fd) (cd) (cB) | (AB) (AG) ^F2 (ga) |\
b2(ag) f2(ed) | c3B (AB) (cd) | B2(AG) A2^F2 | G6 |]
[| A2 |\
[| A2 |\

